packages/ui-icons/src/Basic/32/Internet-access_32.svg

<svg xmlns="http://www.w3.org/2000/svg" viewBox="0 0 40 40"><path d="M7 36h26a3 3 0 0 0 3-3V7a3 3 0 0 0-3-3H7a3 3 0 0 0-3 3v26a3 3 0 0 0 3 3Zm19-2H14V19.21L16.52 22h6.87L26 19.3ZM6 7a1 1 0 0 1 1-1h26a1 1 0 0 1 1 1v5H6Zm0 7h28v19a1 1 0 0 1-1 1h-5V17l-1.53-1.07L22.53 20H17.4l-3.68-4-1.72.91V34H7a1 1 0 0 1-1-1Zm13 16h2v2h-2ZM32 9a1 1 0 1 1-1-1 1 1 0 0 1 1 1ZM18 27a1 1 0 1 1-1-1 1 1 0 0 1 1 1Zm5-1a1 1 0 1 1-1 1 1 1 0 0 1 1-1Z"/></svg>

<svg id="Ready" xmlns="http://www.w3.org/2000/svg" viewBox="0 0 40 40"><title>Megaicons_work_32_1.8_cp</title><path d="M7,36H33a3,3,0,0,0,3-3V7a3,3,0,0,0-3-3H7A3,3,0,0,0,4,7V33A3,3,0,0,0,7,36Zm19-2H14V19.21L16.52,22h6.87L26,19.3ZM6,7A1,1,0,0,1,7,6H33a1,1,0,0,1,1,1v5H6Zm0,7H34V33a1,1,0,0,1-1,1H28V17l-1.53-1.07L22.53,20H17.4l-3.68-4L12,16.91V34H7a1,1,0,0,1-1-1ZM19,30h2v2H19ZM32,9a1,1,0,1,1-1-1A1,1,0,0,1,32,9ZM18,27a1,1,0,1,1-1-1A1,1,0,0,1,18,27Zm5-1a1,1,0,1,1-1,1A1,1,0,0,1,23,26Z"/></svg>
